packages/dnb-ui-lib/assets/icons/exclamation.svg

<svg width="16" height="16" viewBox="0 0 16 16" fill="none" xmlns="http://www.w3.org/2000/svg">
<path fill-rule="evenodd" clip-rule="evenodd" d="M8 1.75C8.41421 1.75 8.75 2.08579 8.75 2.5V9.5C8.75 9.91421 8.41421 10.25 8 10.25C7.58579 10.25 7.25 9.91421 7.25 9.5V2.5C7.25 2.08579 7.58579 1.75 8 1.75ZM7.10717 12.1072C7.35425 11.8601 7.67956 11.75 8 11.75C8.32044 11.75 8.64575 11.8601 8.89283 12.1072C9.13991 12.3543 9.25 12.6796 9.25 13C9.25 13.3204 9.13991 13.6457 8.89283 13.8928C8.64575 14.1399 8.32044 14.25 8 14.25C7.67956 14.25 7.35425 14.1399 7.10717 13.8928C6.86009 13.6457 6.75 13.3204 6.75 13C6.75 12.6796 6.86009 12.3543 7.10717 12.1072Z" fill="black"/>
</svg>

<svg width="16" height="16" viewBox="0 0 16 16" fill="none" xmlns="http://www.w3.org/2000/svg"><path fill-rule="evenodd" clip-rule="evenodd" d="M8 1.75a.75.75 0 01.75.75v7a.75.75 0 01-1.5 0v-7A.75.75 0 018 1.75zm-.893 10.357c.247-.247.573-.357.893-.357.32 0 .646.11.893.357s.357.573.357.893c0 .32-.11.646-.357.893A1.249 1.249 0 018 14.25c-.32 0-.646-.11-.893-.357A1.249 1.249 0 016.75 13c0-.32.11-.646.357-.893z" fill="#000"/></svg>
